**kern	**kern
*part1	*part1
*staff2	*staff1
*I"Piano	*
*clefF4	*clefG2
*k[b-e-]	*k[b-e-]
=1	=1
4FF	(8aL 8cc
.	8b- 8dd
8F 8A	8aJ 8cc
=	=
4GG	8gL 8b-
.	8a 8cc
8D 8G	8gJ) 8b-
=	=
4DD	(8f#XL 8a
.	8b- 8dd
8D 8F#X	8aJ 8cc
=	=
4GG	8gL 8b-
.	8a 8cc
8D 8G	8gJ) 8b-
=	=
4DD	(8f#XL 8a
.	8b- 8dd
8D 8F#X	8aJ 8cc
=	=
4DD	8gL 8b-
.	8a 8cc
8D 8F#X	8dJ) 8a
=	=
4GG	(8BnL 8g
!	!LO:TX:b:i:t=cresc.
.	8d 8bn
8D 8G	8gJ) 8dd
=	=
4CC	(8ee-L 8gg
.	8g
8E- 8c	8ee-J) 8gg
=	=
*-	*-
!!!system-decoration: {(s1,s2)}
